X:1
T:Title
%%score ( 1 2 ) { 3 | 4 }
L:1/8
M:3/2
K:D
V:1 treble nm="Drawbar Organ, Soprano"
V:2 treble 
V:3 bass nm="Church Organ, Alleluia! Sing the Triumph"
V:4 bass 
V:1
 D3 F A4 A4 | B3 ^G A4 d4 | [df]3 [eg] [Adfa]6 [Ade]2 | f2 g2 [Adf]8 | D3 F A4 A4 | B3 ^G c4 F4 | %6
w: By~Arthur~Henry~Brown * * *||||||
 [EG]2 [DG]2 [EA]6 A2 | A2 [Ad]2 [Ac]8 | [Ad]2 [Ac]2 [GB]4 [FA]4 | [FB]2 [FA]2 [EG]4 [DF]4 | %10
w: ||||
 [FB]2 [Dd]2 [Ec]2 A2 [^GB]4- | [GB]2 A2 [EA]8 | A3 A [Ge]6 [Gc]2 | [EA]2 [CG]2 [DF]3 [EG] [FA]4 | %14
w: ||||
 [Ad]2 [Ad]2 [Ge]6 [Ec]2 | z4 G4 z4 | [FA]2 [FA]2 [DG]6 [DF]2 | [DE]2 [DF]2 [DG]4 [DF]4 | %18
w: ||||
 E2 [EF]2 [EG]6 [B,F]2 | [B,E]2 D2 [CA]8 | [Ac]2 [Gc]2 [Fd]6 [EG]2 | [CF]2 [CE]2 [DA]4 D4 | %22
w: ||||
 [DG]2 [GB]2 A2 [Fd]2 [Ec]4- | [Ec]2 [Ed]2 [Fd]8 | D3 F A4 A4 | B3 ^G c4 F4 | %26
w: ||||
 [EG]2 [DG]2 [EA]6 A2 | A2 [Ad]2 [Ac]8 | [Ad]2 [Ac]2 [GB]4 [FA]4 | [FB]2 [FA]2 [EG]4 [DF]4 | %30
w: ||||
 [FB]2 [Dd]2 [Ec]2 A2 [^GB]4- | [GB]2 A2 [EA]8 | A3 A [Ge]6 [Gc]2 | [EA]2 [CG]2 [DF]3 [EG] [FA]4 | %34
w: ||||
 [Ad]2 [Ad]2 [Ge]6 [Ec]2 | z4 G4 z4 | [FA]2 [FA]2 [DG]6 [DF]2 | [DE]2 [DF]2 [DG]4 [DF]4 | %38
w: ||||
 E2 [EF]2 [EG]6 [B,F]2 | [B,E]2 D2 [CA]8 | [Ac]2 [Gc]2 [Fd]6 [EG]2 | [CF]2 [CE]2 [DA]4 D4 | %42
w: ||||
 [DG]2 [GB]2 A2 [Fd]2 [Ec]4- | [Ec]2 [Ed]2 [Fd]8 | D3 F A4 A4 | B3 ^G c4 F4 | %46
w: ||||
 [EG]2 [DG]2 [EA]6 A2 | A2 [Ad]2 [Ac]8 | [Ad]2 [Ac]2 [GB]4 [FA]4 | [FB]2 [FA]2 [EG]4 [DF]4 | %50
w: ||||
 [FB]2 [Dd]2 [Ec]2 A2 [^GB]4- | [GB]2 A2 [EA]8 | A3 A [Ge]6 [Gc]2 | [EA]2 [CG]2 [DF]3 [EG] [FA]4 | %54
w: ||||
 [Ad]2 [Ad]2 [Ge]6 [Ec]2 | z4 G4 z4 | [FA]2 [FA]2 [DG]6 [DF]2 | [DE]2 [DF]2 [DG]4 [DF]4 | %58
w: ||||
 E2 [EF]2 [EG]6 [B,F]2 | [B,E]2 D2 [CA]8 | [Ac]2 [Gc]2 [Fd]6 [EG]2 | [CF]2 [CE]2 [DA]4 D4 | %62
w: ||||
 [DG]2 [GB]2 A2 [Fd]2 [Ec]4- | [Ec]2 [Ed]2 [Fd]8 | D3 F A4 A4 | B3 ^G c4 F4 | %66
w: ||||
 [EG]2 [DG]2 [EA]6 A2 | A2 [Ad]2 [Ac]8 | [Ad]2 [Ac]2 [GB]4 [FA]4 | [FB]2 [FA]2 [EG]4 [DF]4 | %70
w: ||||
 [FB]2 [Dd]2 [Ec]2 A2 [^GB]4- | [GB]2 A2 [EA]8 | A3 A [Ge]6 [Gc]2 | [EA]2 [CG]2 [DF]3 [EG] [FA]4 | %74
w: ||||
 [Ad]2 [Ad]2 [Ge]6 [Ec]2 | z4 G4 z4 | [FA]2 [FA]2 [DG]6 [DF]2 | [DE]2 [DF]2 [DG]4 [DF]4 | %78
w: ||||
 E2 [EF]2 [EG]6 [B,F]2 | [B,E]2 D2 [CA]8 | [Ac]2 [Gc]2 [Fd]6 [EG]2 | [CF]2 [CE]2 [DA]4 D4 | %82
w: ||||
 [DG]2 [GB]2 A2 [Fd]2 [Ec]4- | [Ec]2 [Ed]2 [Fd]8 | D3 F A4 A4 | B3 ^G c4 F4 | %86
w: ||||
 [EG]2 [DG]2 [EA]6 A2 | A2 [Ad]2 [Ac]8 | [Ad]2 [Ac]2 [GB]4 [FA]4 | [FB]2 [FA]2 [EG]4 [DF]4 | %90
w: ||||
 [FB]2 [Dd]2 [Ec]2 A2 [^GB]4- | [GB]2 A2 [EA]8 | A3 A [Ge]6 [Gc]2 | [EA]2 [CG]2 [DF]3 [EG] [FA]4 | %94
w: ||||
 [Ad]2 [Ad]2 [Ge]6 [Ec]2 | z4 G4 z4 | [FA]2 [FA]2 [DG]6 [DF]2 | [DE]2 [DF]2 [DG]4 [DF]4 | %98
w: ||||
 E2 [EF]2 [EG]6 [B,F]2 | [B,E]2 D2 [CA]8 | [Ac]2 [Gc]2 [Fd]6 [EG]2 | [CF]2 [CE]2 [DA]4 D4 | %102
w: ||||
 [DG]2 [GB]2 A2 [Fd]2 [Ec]4- | [Ec]2 [Ed]2 [Fd]8 |] %104
w: ||
V:2
 x12 | x12 | A4 z4 z4 | [Ac]4 z4 z4 | x12 | x12 | x12 | x12 | x12 | x12 | x12 | x12 | x12 | x12 | %14
 x12 | [EA]2 [EG]2 D4- [DF]4 | x12 | x12 | x12 | x12 | x12 | x12 | x12 | x12 | x12 | x12 | x12 | %27
 x12 | x12 | x12 | x12 | x12 | x12 | x12 | x12 | [EA]2 [EG]2 D4- [DF]4 | x12 | x12 | x12 | x12 | %40
 x12 | x12 | x12 | x12 | x12 | x12 | x12 | x12 | x12 | x12 | x12 | x12 | x12 | x12 | x12 | %55
 [EA]2 [EG]2 D4- [DF]4 | x12 | x12 | x12 | x12 | x12 | x12 | x12 | x12 | x12 | x12 | x12 | x12 | %68
 x12 | x12 | x12 | x12 | x12 | x12 | x12 | [EA]2 [EG]2 D4- [DF]4 | x12 | x12 | x12 | x12 | x12 | %81
 x12 | x12 | x12 | x12 | x12 | x12 | x12 | x12 | x12 | x12 | x12 | x12 | x12 | x12 | %95
 [EA]2 [EG]2 D4- [DF]4 | x12 | x12 | x12 | x12 | x12 | x12 | x12 | x12 |] %104
V:3
 D,3 F, A,4 A,4 | B,3 ^G, A,4 F,4 | D4 A,6 A,2 | A,4 D,8 | D,3 F, A,4 A,4 | B,3 ^G, A,4 F,4 | %6
 B,2 B,2[K:treble] C6 C2 | D2 F2 E8 | D2 D2 D4 D4 | B,2 B,2 B,4 B,4 | %10
 F,2 B,2 A,2[K:treble] C2 D4- | D2 D2 C8 | A,3 B, C6 E2 | C2 A,2 A,4 D4 | D2 D2 .C8 | B,2 C2 A,8 | %16
 D2 D2 D6 D2 | B,2 B,2 B,4 A,4 | B,2 B,2 B,6 A,2 | B,2 B,2 A,8 | E2 E2 D6 B,2 | %21
 A,2[K:bass] A,2 A,4 F,4 | B,2 D2 D2 A,2 A,4- | A,2 A,2 A,8 | D,3 F, A,4 A,4 | B,3 ^G, A,4 F,4 | %26
 B,2 B,2[K:treble] C6 C2 | D2 F2 E8 | D2 D2 D4 D4 | B,2 B,2 B,4 B,4 | %30
 F,2 B,2 A,2[K:treble] C2 D4- | D2 D2 C8 | A,3 B, C6 E2 | C2 A,2 A,4 D4 | D2 D2 .C8 | B,2 C2 A,8 | %36
 D2 D2 D6 D2 | B,2 B,2 B,4 A,4 | B,2 B,2 B,6 A,2 | B,2 B,2 A,8 | E2 E2 D6 B,2 | %41
 A,2[K:bass] A,2 A,4 F,4 | B,2 D2 D2 A,2 A,4- | A,2 A,2 A,8 | D,3 F, A,4 A,4 | B,3 ^G, A,4 F,4 | %46
 B,2 B,2[K:treble] C6 C2 | D2 F2 E8 | D2 D2 D4 D4 | B,2 B,2 B,4 B,4 | %50
 F,2 B,2 A,2[K:treble] C2 D4- | D2 D2 C8 | A,3 B, C6 E2 | C2 A,2 A,4 D4 | D2 D2 .C8 | B,2 C2 A,8 | %56
 D2 D2 D6 D2 | B,2 B,2 B,4 A,4 | B,2 B,2 B,6 A,2 | B,2 B,2 A,8 | E2 E2 D6 B,2 | %61
 A,2[K:bass] A,2 A,4 F,4 | B,2 D2 D2 A,2 A,4- | A,2 A,2 A,8 | D,3 F, A,4 A,4 | B,3 ^G, A,4 F,4 | %66
 B,2 B,2[K:treble] C6 C2 | D2 F2 E8 | D2 D2 D4 D4 | B,2 B,2 B,4 B,4 | %70
 F,2 B,2 A,2[K:treble] C2 D4- | D2 D2 C8 | A,3 B, C6 E2 | C2 A,2 A,4 D4 | D2 D2 .C8 | B,2 C2 A,8 | %76
 D2 D2 D6 D2 | B,2 B,2 B,4 A,4 | B,2 B,2 B,6 A,2 | B,2 B,2 A,8 | E2 E2 D6 B,2 | %81
 A,2[K:bass] A,2 A,4 F,4 | B,2 D2 D2 A,2 A,4- | A,2 A,2 A,8 | D,3 F, A,4 A,4 | B,3 ^G, A,4 F,4 | %86
 B,2 B,2[K:treble] C6 C2 | D2 F2 E8 | D2 D2 D4 D4 | B,2 B,2 B,4 B,4 | %90
 F,2 B,2 A,2[K:treble] C2 D4- | D2 D2 C8 | A,3 B, C6 E2 | C2 A,2 A,4 D4 | D2 D2 .C8 | B,2 C2 A,8 | %96
 D2 D2 D6 D2 | B,2 B,2 B,4 A,4 | B,2 B,2 B,6 A,2 | B,2 B,2 A,8 | E2 E2 D6 B,2 | %101
 A,2[K:bass] A,2 A,4 F,4 | B,2 D2 D2 A,2 A,4- | A,2 A,2 A,8 |] %104
V:4
 z12 | z12 | D,4 A,,6 A,,2 | A,,4 D,,8 | z12 | z12 | z4 A,6 G,2 | F,2 D,2 [A,,A,]8 | %8
 F,2 F,2 G,4 D,4 | D,2 D,2 E,4 B,,4 | D,2 B,,2 E,2 E,2 E,4- | E,2 E,2 A,,8 | z2 z A, A,6 A,2 | %13
 .A,4 D,4 D,4 | F,,2 F,,2 A,,3 C, E,2 A,2 | A,2 A,2 D,8 | z2 =C2 B,6 A,2 | G,2 F,2 E,4 F,4 | %18
 G,2 F,2 E,6 F,2 | G,2 ^G,2 z4 z4 | A,2 A,2 B,6 E,2 | z2 G,2 F,4 B,,4 | z2 G,2 F,2 D,2 A,,4- | %23
 A,,2 A,,2 D,8 | z12 | z12 | z4 A,6 G,2 | F,2 D,2 [A,,A,]8 | F,2 F,2 G,4 D,4 | D,2 D,2 E,4 B,,4 | %30
 D,2 B,,2 E,2 E,2 E,4- | E,2 E,2 A,,8 | z2 z A, A,6 A,2 | .A,4 D,4 D,4 | %34
 F,,2 F,,2 A,,3 C, E,2 A,2 | A,2 A,2 D,8 | z2 =C2 B,6 A,2 | G,2 F,2 E,4 F,4 | G,2 F,2 E,6 F,2 | %39
 G,2 ^G,2 z4 z4 | A,2 A,2 B,6 E,2 | z2 G,2 F,4 B,,4 | z2 G,2 F,2 D,2 A,,4- | A,,2 A,,2 D,8 | z12 | %45
 z12 | z4 A,6 G,2 | F,2 D,2 [A,,A,]8 | F,2 F,2 G,4 D,4 | D,2 D,2 E,4 B,,4 | D,2 B,,2 E,2 E,2 E,4- | %51
 E,2 E,2 A,,8 | z2 z A, A,6 A,2 | .A,4 D,4 D,4 | F,,2 F,,2 A,,3 C, E,2 A,2 | A,2 A,2 D,8 | %56
 z2 =C2 B,6 A,2 | G,2 F,2 E,4 F,4 | G,2 F,2 E,6 F,2 | G,2 ^G,2 z4 z4 | A,2 A,2 B,6 E,2 | %61
 z2 G,2 F,4 B,,4 | z2 G,2 F,2 D,2 A,,4- | A,,2 A,,2 D,8 | z12 | z12 | z4 A,6 G,2 | %67
 F,2 D,2 [A,,A,]8 | F,2 F,2 G,4 D,4 | D,2 D,2 E,4 B,,4 | D,2 B,,2 E,2 E,2 E,4- | E,2 E,2 A,,8 | %72
 z2 z A, A,6 A,2 | .A,4 D,4 D,4 | F,,2 F,,2 A,,3 C, E,2 A,2 | A,2 A,2 D,8 | z2 =C2 B,6 A,2 | %77
 G,2 F,2 E,4 F,4 | G,2 F,2 E,6 F,2 | G,2 ^G,2 z4 z4 | A,2 A,2 B,6 E,2 | z2 G,2 F,4 B,,4 | %82
 z2 G,2 F,2 D,2 A,,4- | A,,2 A,,2 D,8 | z12 | z12 | z4 A,6 G,2 | F,2 D,2 [A,,A,]8 | %88
 F,2 F,2 G,4 D,4 | D,2 D,2 E,4 B,,4 | D,2 B,,2 E,2 E,2 E,4- | E,2 E,2 A,,8 | z2 z A, A,6 A,2 | %93
 .A,4 D,4 D,4 | F,,2 F,,2 A,,3 C, E,2 A,2 | A,2 A,2 D,8 | z2 =C2 B,6 A,2 | G,2 F,2 E,4 F,4 | %98
 G,2 F,2 E,6 F,2 | G,2 ^G,2 z4 z4 | A,2 A,2 B,6 E,2 | z2 G,2 F,4 B,,4 | z2 G,2 F,2 D,2 A,,4- | %103
 A,,2 A,,2 D,8 |] %104

